svgs/sharp-regular/barcode-scan.svg

<svg xmlns="http://www.w3.org/2000/svg" viewBox="0 0 640 512"><!--! Font Awesome Pro 6.6.0 by @fontawesome - https://fontawesome.com License - https://fontawesome.com/license (Commercial License) Copyright 2024 Fonticons, Inc. --><path d="M112 32L64 32l0 160 48 0 0-160zM64 480l48 0 0-160-48 0 0 160zm96 0l32 0 0-160-32 0 0 160zm64 0l48 0 0-160-48 0 0 160zm0-288l48 0 0-160-48 0 0 160zM336 480l48 0 0-160-48 0 0 160zm0-288l48 0 0-160-48 0 0 160zM464 480l32 0 0-160-32 0 0 160zm0-288l32 0 0-160-32 0 0 160zm64 288l48 0 0-160-48 0 0 160zm0-288l48 0 0-160-48 0 0 160zm-368 0l32 0 0-160-32 0 0 160zM0 232l0 48 640 0 0-48L0 232z"/></svg>

<svg xmlns="http://www.w3.org/2000/svg" viewBox="0 0 640 512"><!--! Font Awesome Pro 6.4.0 by @fontawesome - https://fontawesome.com License - https://fontawesome.com/license (Commercial License) Copyright 2023 Fonticons, Inc. --><path d="M112 32H64V192h48V32zM64 480h48V320H64V480zm96 0h32V320H160V480zm64 0h48V320H224V480zm0-288h48V32H224V192zM336 480h48V320H336V480zm0-288h48V32H336V192zM464 480h32V320H464V480zm0-288h32V32H464V192zm64 288h48V320H528V480zm0-288h48V32H528V192zm-368 0h32V32H160V192zM0 232v48l640 0V232L0 232z"/></svg>
